www/assets/icons/mark_unread_chat_alt.svg

<svg width="24" height="24" viewBox="0 0 24 24" xmlns="http://www.w3.org/2000/svg" fill='currentColor'><path d="M19 7C20.6569 7 22 5.65685 22 4C22 2.34315 20.6569 1 19 1C17.3431 1 16 2.34315 16 4C16 5.65685 17.3431 7 19 7Z"/><path d="M6 9V7H15.03C13.82 5.4 13.95 3.79 14.11 3H4.01C2.91 3 2.01 3.89 2.01 5L2 23L6 19H20C21.1 19 22 18.1 22 17V7.97C21.16 8.61 20.13 9 19 9H6ZM14 15H6V13H14V15ZM18 12H6V10H18V12Z"/></svg>

<svg xmlns="http://www.w3.org/2000/svg" width="24" height="24" viewBox="0 0 24 24" fill='currentColor'><path d="M19 7a3 3 0 1 0 0-6 3 3 0 0 0 0 6"/><path d="M6 9V7h9.03a4.9 4.9 0 0 1-.92-4H4.01a2 2 0 0 0-2 2L2 23l4-4h14c1.1 0 2-.9 2-2V7.97C21.16 8.61 20.13 9 19 9zm8 6H6v-2h8zm4-3H6v-2h12z"/></svg>
